svg/color/htr.svg

<?xml version="1.0" encoding="UTF-8" ?>
<!DOCTYPE svg PUBLIC "-//W3C//DTD SVG 1.1//EN" "http://www.w3.org/Graphics/SVG/1.1/DTD/svg11.dtd">
<svg width="250pt" height="250pt" viewBox="0 0 250 250" version="1.1" xmlns="http://www.w3.org/2000/svg">
<g id="#ffffffff">
<path fill="#ffffff" opacity="1.00" d=" M 0.00 0.00 L 121.45 0.00 C 114.01 1.19 106.42 1.41 99.08 3.25 C 69.61 9.31 42.75 26.76 24.93 50.96 C 12.26 67.94 4.15 88.24 1.49 109.24 C 1.17 113.33 0.50 117.37 0.00 121.44 L 0.00 0.00 Z" />
<path fill="#ffffff" opacity="1.00" d=" M 128.43 0.00 L 250.00 0.00 L 250.00 121.47 C 249.68 118.96 249.34 116.46 249.01 113.96 C 247.64 98.53 243.41 83.33 236.44 69.49 C 222.93 42.21 199.04 20.23 170.66 9.18 C 157.25 3.60 142.78 1.45 128.43 0.00 Z" />
<path fill="#ffffff" opacity="1.00" d=" M 116.55 21.04 C 153.05 17.71 190.39 35.87 210.74 66.29 C 220.63 80.68 226.57 97.60 228.46 114.91 C 228.77 120.96 228.75 127.01 228.54 133.06 C 226.72 154.85 217.94 176.05 203.56 192.55 C 187.52 211.36 164.54 224.10 140.07 227.68 C 107.90 232.71 73.77 221.29 51.00 198.02 C 26.41 173.62 15.23 136.33 23.16 102.52 C 28.50 77.36 43.86 54.64 64.82 39.82 C 79.96 29.09 98.04 22.44 116.55 21.04 M 113.50 35.83 C 90.70 38.80 69.19 50.77 54.89 68.80 C 42.25 84.57 34.91 104.74 35.28 125.00 C 34.96 150.66 46.93 176.00 66.40 192.60 C 83.22 207.33 105.77 215.12 128.06 214.39 C 142.97 213.63 157.80 209.43 170.59 201.66 C 190.95 189.61 206.21 169.17 211.70 146.13 C 215.41 131.81 215.32 116.54 211.42 102.28 C 205.05 76.95 186.80 54.98 163.17 43.90 C 147.85 36.39 130.39 33.89 113.50 35.83 Z" />
<path fill="#ffffff" opacity="1.00" d=" M 99.21 75.32 C 103.73 75.40 108.27 75.15 112.79 75.42 L 113.44 75.98 C 113.56 89.03 113.33 102.08 113.55 115.12 C 122.10 101.06 144.35 99.91 155.09 111.93 C 159.87 116.66 161.70 123.47 162.41 129.96 C 162.57 144.57 162.41 159.19 162.49 173.80 C 157.79 173.86 153.09 173.84 148.39 173.82 C 148.40 160.85 148.40 147.89 148.39 134.93 C 148.23 128.50 145.72 121.40 139.68 118.28 C 135.91 115.91 131.30 116.18 127.05 116.48 C 121.36 117.42 116.19 121.62 114.56 127.24 C 113.26 130.58 113.51 134.21 113.42 137.72 C 117.13 137.69 120.92 137.44 124.50 138.62 C 124.31 142.09 124.48 145.56 124.36 149.03 C 123.04 151.02 120.04 149.93 118.01 150.24 C 107.59 149.84 97.06 151.00 86.71 149.57 C 86.82 145.91 86.82 142.24 86.72 138.58 C 90.67 137.64 94.73 137.60 98.77 137.75 C 98.78 118.82 98.78 99.89 98.77 80.97 C 98.75 79.07 98.95 77.19 99.21 75.32 Z" />
<path fill="#ffffff" opacity="1.00" d=" M 0.00 128.41 C 0.44 132.29 1.02 136.16 1.40 140.06 C 4.63 167.45 17.41 193.59 36.99 213.01 C 56.22 232.41 82.04 245.09 109.14 248.50 C 113.26 248.82 117.35 249.50 121.46 250.00 L 0.00 250.00 L 0.00 128.41 Z" />
<path fill="#ffffff" opacity="1.00" d=" M 248.49 141.00 C 248.80 136.82 249.48 132.69 250.00 128.54 L 250.00 250.00 L 128.53 250.00 C 132.64 249.50 136.73 248.82 140.86 248.50 C 167.96 245.10 193.78 232.41 213.01 213.01 C 232.37 193.81 245.07 168.05 248.49 141.00 Z" />
<path fill="#ffffff" opacity="1.00" d=" M 86.73 162.49 C 99.29 162.23 111.87 162.36 124.44 162.41 C 124.36 166.40 124.40 170.38 124.38 174.36 C 111.83 174.34 99.29 174.48 86.75 174.29 C 86.80 170.35 86.83 166.42 86.73 162.49 Z" />
</g>
<g id="#000000ff">
<path fill="#000000" opacity="1.00" d=" M 121.45 0.00 L 128.43 0.00 C 142.78 1.45 157.25 3.60 170.66 9.18 C 199.04 20.23 222.93 42.21 236.44 69.49 C 243.41 83.33 247.64 98.53 249.01 113.96 C 249.34 116.46 249.68 118.96 250.00 121.47 L 250.00 128.54 C 249.48 132.69 248.80 136.82 248.49 141.00 C 245.07 168.05 232.37 193.81 213.01 213.01 C 193.78 232.41 167.96 245.10 140.86 248.50 C 136.73 248.82 132.64 249.50 128.53 250.00 L 121.46 250.00 C 117.35 249.50 113.26 248.82 109.14 248.50 C 82.04 245.09 56.22 232.41 36.99 213.01 C 17.41 193.59 4.63 167.45 1.40 140.06 C 1.02 136.16 0.44 132.29 0.00 128.41 L 0.00 121.44 C 0.50 117.37 1.17 113.33 1.49 109.24 C 4.15 88.24 12.26 67.94 24.93 50.96 C 42.75 26.76 69.61 9.31 99.08 3.25 C 106.42 1.41 114.01 1.19 121.45 0.00 M 116.55 21.04 C 98.04 22.44 79.96 29.09 64.82 39.82 C 43.86 54.64 28.50 77.36 23.16 102.52 C 15.23 136.33 26.41 173.62 51.00 198.02 C 73.77 221.29 107.90 232.71 140.07 227.68 C 164.54 224.10 187.52 211.36 203.56 192.55 C 217.94 176.05 226.72 154.85 228.54 133.06 C 228.75 127.01 228.77 120.96 228.46 114.91 C 226.57 97.60 220.63 80.68 210.74 66.29 C 190.39 35.87 153.05 17.71 116.55 21.04 Z" />
<path fill="#000000" opacity="1.00" d=" M 113.50 35.83 C 130.39 33.89 147.85 36.39 163.17 43.90 C 186.80 54.98 205.05 76.95 211.42 102.28 C 215.32 116.54 215.41 131.81 211.70 146.13 C 206.21 169.17 190.95 189.61 170.59 201.66 C 157.80 209.43 142.97 213.63 128.06 214.39 C 105.77 215.12 83.22 207.33 66.40 192.60 C 46.93 176.00 34.96 150.66 35.28 125.00 C 34.91 104.74 42.25 84.57 54.89 68.80 C 69.19 50.77 90.70 38.80 113.50 35.83 M 99.21 75.32 C 98.95 77.19 98.75 79.07 98.77 80.97 C 98.78 99.89 98.78 118.82 98.77 137.75 C 94.73 137.60 90.67 137.64 86.72 138.58 C 86.82 142.24 86.82 145.91 86.71 149.57 C 97.06 151.00 107.59 149.84 118.01 150.24 C 120.04 149.93 123.04 151.02 124.36 149.03 C 124.48 145.56 124.31 142.09 124.50 138.62 C 120.92 137.44 117.13 137.69 113.42 137.72 C 113.51 134.21 113.26 130.58 114.56 127.24 C 116.19 121.62 121.36 117.42 127.05 116.48 C 131.30 116.18 135.91 115.91 139.68 118.28 C 145.72 121.40 148.23 128.50 148.39 134.93 C 148.40 147.89 148.40 160.85 148.39 173.82 C 153.09 173.84 157.79 173.86 162.49 173.80 C 162.41 159.19 162.57 144.57 162.41 129.96 C 161.70 123.47 159.87 116.66 155.09 111.93 C 144.35 99.91 122.10 101.06 113.55 115.12 C 113.33 102.08 113.56 89.03 113.44 75.98 L 112.79 75.42 C 108.27 75.15 103.73 75.40 99.21 75.32 M 86.73 162.49 C 86.83 166.42 86.80 170.35 86.75 174.29 C 99.29 174.48 111.83 174.34 124.38 174.36 C 124.40 170.38 124.36 166.40 124.44 162.41 C 111.87 162.36 99.29 162.23 86.73 162.49 Z" />
</g>
</svg>

<?xml version="1.0" encoding="utf-8"?>
<!-- Generator: Adobe Illustrator 26.0.3, SVG Export Plug-In . SVG Version: 6.00 Build 0)  -->
<svg version="1.1" id="Layer_1" xmlns="http://www.w3.org/2000/svg" xmlns:xlink="http://www.w3.org/1999/xlink" x="0px" y="0px"
	 viewBox="0 0 250 250" style="enable-background:new 0 0 250 250;" xml:space="preserve">
<style type="text/css">
	.st0{fill:#FFFFFF;}
</style>
<g id="_x23_ffffffff">
	<path class="st0" d="M116.6,21c36.5-3.3,73.8,14.8,94.2,45.2c9.9,14.4,15.8,31.3,17.7,48.6c0.3,6,0.3,12.1,0.1,18.1
		c-1.8,21.8-10.6,43-25,59.5c-16,18.8-39,31.6-63.5,35.1c-32.2,5-66.3-6.4-89.1-29.7c-24.6-24.4-35.8-61.7-27.8-95.5
		c5.3-25.2,20.7-47.9,41.7-62.7C80,29.1,98,22.4,116.6,21 M113.5,35.8c-22.8,3-44.3,14.9-58.6,33c-12.6,15.8-20,35.9-19.6,56.2
		c-0.3,25.7,11.7,51,31.1,67.6c16.8,14.7,39.4,22.5,61.7,21.8c14.9-0.8,29.7-5,42.5-12.7c20.4-12.1,35.6-32.5,41.1-55.5
		c3.7-14.3,3.6-29.6-0.3-43.9c-6.4-25.3-24.6-47.3-48.2-58.4C147.9,36.4,130.4,33.9,113.5,35.8z"/>
	<path class="st0" d="M99.2,75.3c4.5,0.1,9.1-0.2,13.6,0.1l0.7,0.6c0.1,13-0.1,26.1,0.1,39.1c8.5-14.1,30.8-15.2,41.5-3.2
		c4.8,4.7,6.6,11.5,7.3,18c0.2,14.6,0,29.2,0.1,43.8c-4.7,0.1-9.4,0-14.1,0c0-13,0-25.9,0-38.9c-0.2-6.4-2.7-13.5-8.7-16.6
		c-3.8-2.4-8.4-2.1-12.6-1.8c-5.7,0.9-10.9,5.1-12.5,10.8c-1.3,3.3-1,7-1.1,10.5c3.7,0,7.5-0.3,11.1,0.9c-0.2,3.5,0,6.9-0.1,10.4
		c-1.3,2-4.3,0.9-6.3,1.2c-10.4-0.4-21,0.8-31.3-0.7c0.1-3.7,0.1-7.3,0-11c3.9-0.9,8-1,12-0.8c0-18.9,0-37.9,0-56.8
		C98.8,79.1,98.9,77.2,99.2,75.3z"/>
	<path class="st0" d="M86.7,162.5c12.6-0.3,25.1-0.1,37.7-0.1c-0.1,4,0,8-0.1,11.9c-12.5,0-25.1,0.1-37.6-0.1
		C86.8,170.4,86.8,166.4,86.7,162.5z"/>
</g>
<g id="_x23_000000ff">
	<path d="M121.4,0h7c14.4,1.5,28.8,3.6,42.2,9.2c28.4,11,52.3,33,65.8,60.3c7,13.8,11.2,29,12.6,44.5c0.3,2.5,0.7,5,1,7.5v7.1
		c-0.5,4.2-1.2,8.3-1.5,12.5c-3.4,27.1-16.1,52.8-35.5,72c-19.2,19.4-45,32.1-72.1,35.5c-4.1,0.3-8.2,1-12.3,1.5h-7.1
		c-4.1-0.5-8.2-1.2-12.3-1.5C82,245.1,56.2,232.4,37,213c-19.6-19.4-32.4-45.6-35.6-72.9c-0.4-3.9-1-7.8-1.4-11.6v-7
		c0.5-4.1,1.2-8.1,1.5-12.2c2.7-21,10.8-41.3,23.4-58.3C42.8,26.8,69.6,9.3,99.1,3.2C106.4,1.4,114,1.2,121.4,0 M116.6,21
		C98,22.4,80,29.1,64.8,39.8c-21,14.8-36.3,37.5-41.7,62.7c-7.9,33.8,3.2,71.1,27.8,95.5c22.8,23.3,56.9,34.7,89.1,29.7
		c24.5-3.6,47.4-16.3,63.5-35.1c14.4-16.5,23.2-37.7,25-59.5c0.2-6,0.2-12.1-0.1-18.1c-1.9-17.3-7.8-34.2-17.7-48.6
		C190.4,35.9,153.1,17.7,116.6,21z"/>
	<path d="M113.5,35.8c16.9-1.9,34.4,0.6,49.7,8.1c23.6,11.1,41.9,33,48.2,58.4c3.9,14.3,4,29.5,0.3,43.9
		c-5.5,23-20.8,43.5-41.1,55.5c-12.8,7.8-27.6,12-42.5,12.7c-22.3,0.7-44.8-7.1-61.7-21.8C46.9,176,35,150.7,35.3,125
		c-0.4-20.3,7-40.4,19.6-56.2C69.2,50.8,90.7,38.8,113.5,35.8 M99.2,75.3c-0.3,1.9-0.5,3.8-0.4,5.7c0,18.9,0,37.8,0,56.8
		c-4-0.1-8.1-0.1-12,0.8c0.1,3.7,0.1,7.3,0,11c10.3,1.4,20.9,0.3,31.3,0.7c2-0.3,5,0.8,6.3-1.2c0.1-3.5-0.1-6.9,0.1-10.4
		c-3.6-1.2-7.4-0.9-11.1-0.9c0.1-3.5-0.2-7.1,1.1-10.5c1.6-5.6,6.8-9.8,12.5-10.8c4.2-0.3,8.9-0.6,12.6,1.8c6,3.1,8.6,10.2,8.7,16.6
		c0,13,0,25.9,0,38.9c4.7,0,9.4,0,14.1,0c-0.1-14.6,0.1-29.2-0.1-43.8c-0.7-6.5-2.5-13.3-7.3-18c-10.7-12-33-10.9-41.5,3.2
		c-0.2-13,0-26.1-0.1-39.1l-0.7-0.6C108.3,75.2,103.7,75.4,99.2,75.3 M86.7,162.5c0.1,3.9,0.1,7.9,0,11.8
		c12.5,0.2,25.1,0.1,37.6,0.1c0-4,0-8,0.1-11.9C111.9,162.4,99.3,162.2,86.7,162.5z"/>
</g>
</svg>
